X: 564
T: Hailian hua
%%abc-version 2.0
%%abcx-abcm2ps-target-version 5.9.1 (29 Sep 2008)
%%abc-creator hum2abc beta
%%abcx-conversion-date 2013/10/02 07:52:30
%%abc-edited-by Helmut Schaffrath
%%humdrum-veritas 21563069
%%humdrum-veritas-data 1997506801
%%continueall 1
%%barnumbers 0
L: 1/8
M: 2/4
K: A
e2d c [I:setbarnb 1]| 
B4 | 
A2F A | 
B4 | 
c ef2 | 
ae2c | 
B2F A | 
B2z2 | 
F AB2 | 
B c F E | 
e c e f | 
A4 | 
F AB2 | 
cE2C | 
E C E F | 
E4 | 
e e/ c/ e f | 
A4 | 
F AB2 | 
cE2C | 
E C E F | 
E4 |]  



